azure-patterns/svg-hybrid-deployment.svg

<svg xmlns="http://www.w3.org/2000/svg" viewBox="0 0 49 49">
                                
                            
  <polygon fill="#FFFFFF" points="3.17 10.3808 12.545 10.3808 12.545 1.0678 3.17 1.0678"></polygon>
  <polygon fill="#FFFFFF" points="1.2501 40.7641 7.8791 47.3931 14.4651 40.8091 7.8351 34.1801"></polygon>
  <polygon fill="#FFFFFF" points="6.2892 17.3299 4.0902 15.9959 1.8932 18.2639 3.0432 19.7999 3.7192 20.4659 0.7772 20.7329 0.5742 23.7349 2.9412 24.1359 3.3812 24.7689 1.8932 27.0049 3.9902 28.6059 5.5792 27.2379 6.4922 27.3049 6.6262 29.7729 9.6022 29.6729 10.3462 27.3379 12.6122 28.6389 14.5062 26.8049 13.2882 24.6689 13.4912 24.4029 15.4852 24.1359 15.6552 20.8659 13.4912 20.6329 13.2542 19.9989 14.5392 18.1639 12.0722 16.3629 10.0422 17.4309 9.5012 15.0289 7.0322 14.9619"></polygon>
  <path d="M8.2119,23.9394 C9.0959,23.9394 9.8149,23.2304 9.8149,22.3574 C9.8149,21.4854 9.0959,20.7764 8.2119,20.7764 C7.3269,20.7764 6.6079,21.4854 6.6079,22.3574 C6.6079,23.2304 7.3269,23.9394 8.2119,23.9394 M8.2119,19.5754 C9.7699,19.5754 11.0319,20.8214 11.0319,22.3574 C11.0319,23.8954 9.7699,25.1404 8.2119,25.1404 C6.6539,25.1404 5.3919,23.8954 5.3919,22.3574 C5.3919,20.8214 6.6539,19.5754 8.2119,19.5754"></path>
  <path d="M15.21,23.1294 C15.21,23.2944 15.08,23.4314 14.912,23.4414 L13.119,23.5534 C13.004,23.5604 12.91,23.6384 12.877,23.7454 C12.782,24.0594 12.655,24.3594 12.5,24.6424 C12.445,24.7414 12.456,24.8624 12.532,24.9474 L13.722,26.2784 C13.832,26.4024 13.826,26.5904 13.708,26.7074 L12.613,27.7864 C12.552,27.8474 12.471,27.8784 12.389,27.8784 C12.314,27.8784 12.239,27.8524 12.179,27.8004 L10.828,26.6254 C10.777,26.5814 10.715,26.5594 10.652,26.5594 C10.606,26.5594 10.561,26.5704 10.52,26.5934 C10.232,26.7454 9.93,26.8694 9.613,26.9624 C9.503,26.9954 9.425,27.0884 9.417,27.2004 L9.304,28.9754 C9.293,29.1404 9.154,29.2684 8.987,29.2684 L7.439,29.2684 C7.272,29.2684 7.133,29.1404 7.123,28.9754 L7.01,27.2014 C7.002,27.0894 6.923,26.9964 6.814,26.9634 C6.496,26.8704 6.192,26.7464 5.906,26.5944 C5.864,26.5714 5.818,26.5614 5.773,26.5614 C5.71,26.5614 5.647,26.5824 5.598,26.6264 L4.248,27.8004 C4.188,27.8524 4.112,27.8784 4.037,27.8784 C3.957,27.8784 3.875,27.8474 3.814,27.7864 L2.719,26.7074 C2.601,26.5904 2.595,26.4024 2.705,26.2784 L3.893,24.9494 C3.969,24.8654 3.979,24.7434 3.925,24.6444 C3.77,24.3604 3.642,24.0604 3.546,23.7454 C3.514,23.6384 3.418,23.5604 3.305,23.5534 L1.515,23.4414 C1.348,23.4314 1.217,23.2944 1.217,23.1294 L1.217,21.6034 C1.217,21.4374 1.348,21.3004 1.515,21.2904 L3.3,21.1794 C3.414,21.1724 3.509,21.0934 3.541,20.9854 C3.637,20.6694 3.764,20.3664 3.92,20.0804 C3.974,19.9814 3.963,19.8604 3.887,19.7754 L2.705,18.4534 C2.595,18.3294 2.601,18.1414 2.719,18.0254 L3.814,16.9454 C3.875,16.8844 3.957,16.8534 4.037,16.8534 C4.112,16.8534 4.188,16.8794 4.248,16.9324 L5.586,18.0954 C5.636,18.1394 5.699,18.1614 5.762,18.1614 C5.807,18.1614 5.854,18.1504 5.896,18.1274 C6.186,17.9724 6.493,17.8464 6.814,17.7524 C6.924,17.7194 7.004,17.6264 7.011,17.5134 L7.123,15.7564 C7.133,15.5914 7.272,15.4634 7.439,15.4634 L8.987,15.4634 C9.154,15.4634 9.293,15.5914 9.304,15.7564 L9.416,17.5154 C9.424,17.6274 9.503,17.7204 9.612,17.7524 C9.934,17.8474 10.24,17.9734 10.531,18.1284 C10.572,18.1514 10.618,18.1624 10.664,18.1624 C10.727,18.1624 10.789,18.1404 10.84,18.0974 L12.179,16.9324 C12.239,16.8794 12.314,16.8534 12.389,16.8534 C12.471,16.8534 12.552,16.8844 12.613,16.9454 L13.708,18.0254 C13.826,18.1414 13.832,18.3294 13.722,18.4534 L12.538,19.7784 C12.462,19.8624 12.451,19.9834 12.506,20.0824 C12.661,20.3674 12.787,20.6704 12.883,20.9854 C12.915,21.0934 13.01,21.1714 13.123,21.1794 L14.912,21.2904 C15.08,21.3004 15.21,21.4374 15.21,21.6034 L15.21,23.1294 Z M16.427,21.7684 L16.427,21.6034 C16.427,20.8054 15.795,20.1414 14.988,20.0914 L13.939,20.0254 L14.635,19.2484 C15.169,18.6504 15.141,17.7394 14.568,17.1754 L13.475,16.0964 C13.185,15.8104 12.799,15.6524 12.389,15.6524 C12.015,15.6524 11.654,15.7864 11.374,16.0304 L10.585,16.7174 L10.519,15.6814 C10.469,14.8854 9.795,14.2624 8.987,14.2624 L7.439,14.2624 C6.631,14.2624 5.959,14.8854 5.908,15.6814 L5.842,16.7174 L5.053,16.0304 C4.772,15.7864 4.412,15.6524 4.037,15.6524 C3.628,15.6524 3.242,15.8104 2.953,16.0964 L1.858,17.1754 C1.287,17.7394 1.258,18.6504 1.793,19.2484 L2.488,20.0254 L1.438,20.0914 C0.631,20.1414 0,20.8054 0,21.6034 L0,23.1294 C0,23.9264 0.631,24.5904 1.438,24.6414 L2.488,24.7054 L1.793,25.4844 C1.258,26.0824 1.287,26.9924 1.858,27.5564 L2.953,28.6364 C3.243,28.9214 3.628,29.0794 4.037,29.0794 C4.412,29.0794 4.772,28.9454 5.053,28.7014 L5.842,28.0144 L5.908,29.0504 C5.959,29.8464 6.631,30.4694 7.439,30.4694 L8.987,30.4694 C9.795,30.4694 10.469,29.8454 10.519,29.0494 L10.585,28.0144 L11.374,28.7004 C11.654,28.9454 12.015,29.0794 12.389,29.0794 C12.799,29.0794 13.185,28.9214 13.475,28.6364 L14.568,27.5564 C15.141,26.9924 15.169,26.0824 14.635,25.4844 L13.939,24.7054 L14.989,24.6414 C15.795,24.5904 16.427,23.9264 16.427,23.1294 L16.427,22.9684 L16.44,22.9684 L16.44,21.7684 L16.427,21.7684 Z"></path>
  <path d="M7.7529,46.4897 L1.9049,40.7207 L7.7529,34.9507 L13.6009,40.7207 L7.7529,46.4897 Z M3.7699,9.6587 L12.0409,9.6587 L12.0409,1.5007 L3.7699,1.5007 L3.7699,9.6587 Z M47.9899,21.8877 L45.5839,20.0267 C45.4189,19.8997 45.2019,19.8787 45.0129,19.9717 C44.8279,20.0647 44.7159,20.2497 44.7189,20.4537 L44.7319,21.5177 L30.4979,21.5177 L30.4979,5.6047 C30.4979,5.1357 30.1119,4.7547 29.6389,4.7547 L13.5599,4.7547 L13.5599,0.7507 C13.5599,0.3367 13.2189,-0.0003 12.8009,-0.0003 L3.0109,-0.0003 C2.5929,-0.0003 2.2519,0.3367 2.2519,0.7507 L2.2519,10.4087 C2.2519,10.8227 2.5929,11.1587 3.0109,11.1587 L12.8009,11.1587 C13.2189,11.1587 13.5599,10.8227 13.5599,10.4087 L13.5599,6.4557 L28.7809,6.4557 L28.7809,21.5177 L15.7529,21.5177 L15.7529,23.2187 L28.7809,23.2187 L28.7809,39.9067 L14.9249,39.9067 L8.2889,33.3597 C8.0039,33.0777 7.5019,33.0787 7.2169,33.3597 L0.2949,40.1897 C0.1529,40.3297 0.0719,40.5227 0.0719,40.7207 C0.0719,40.9187 0.1529,41.1117 0.2949,41.2517 L7.2169,48.0817 C7.3599,48.2217 7.5509,48.2997 7.7529,48.2997 C7.9549,48.2997 8.1459,48.2217 8.2889,48.0817 L14.8499,41.6077 L29.6389,41.6077 C30.1119,41.6077 30.4979,41.2257 30.4979,40.7577 L30.4979,23.2187 L44.7529,23.2187 L44.7669,24.2777 C44.7699,24.4787 44.8839,24.6587 45.0649,24.7487 C45.2459,24.8377 45.4609,24.8187 45.6239,24.6977 L47.9819,22.9457 C48.1499,22.8197 48.2479,22.6277 48.2499,22.4187 C48.2519,22.2097 48.1569,22.0157 47.9899,21.8877 Z"></path>
</svg>

<svg xmlns="http://www.w3.org/2000/svg" viewBox="0 0 49 49"><path fill="#FFF" d="M3.17 10.38h9.375V1.069H3.17zM1.25 40.764l6.63 6.63 6.585-6.585-6.63-6.629zM6.29 17.33l-2.2-1.334-2.197 2.268 1.15 1.536.676.666-2.942.267-.203 3.002 2.367.4.44.634-1.488 2.236 2.097 1.6 1.59-1.367.912.067.134 2.468 2.976-.1.744-2.335 2.266 1.3 1.894-1.833-1.218-2.136.203-.266 1.994-.267.17-3.27-2.164-.233-.237-.634 1.285-1.835-2.467-1.801-2.03 1.068-.54-2.402-2.47-.067z"/><path d="M8.212 23.94c.884 0 1.603-.71 1.603-1.583 0-.872-.72-1.58-1.603-1.58-.885 0-1.604.708-1.604 1.58 0 .873.719 1.582 1.604 1.582m0-4.364c1.558 0 2.82 1.246 2.82 2.782 0 1.538-1.262 2.783-2.82 2.783-1.558 0-2.82-1.245-2.82-2.783 0-1.536 1.262-2.782 2.82-2.782"/><path d="M15.21 23.13c0 .164-.13.301-.298.311l-1.793.112a.27.27 0 0 0-.242.192 4.7 4.7 0 0 1-.377.897.263.263 0 0 0 .032.305l1.19 1.331a.312.312 0 0 1-.014.43l-1.095 1.078a.32.32 0 0 1-.434.014l-1.351-1.175a.268.268 0 0 0-.308-.032c-.288.152-.59.276-.907.37a.27.27 0 0 0-.196.237l-.113 1.775a.316.316 0 0 1-.317.293H7.439a.315.315 0 0 1-.316-.293l-.113-1.774a.271.271 0 0 0-.196-.238 4.813 4.813 0 0 1-.908-.369.276.276 0 0 0-.308.032L4.248 27.8a.323.323 0 0 1-.434-.014l-1.095-1.079a.312.312 0 0 1-.014-.429l1.188-1.329a.264.264 0 0 0 .032-.305 4.79 4.79 0 0 1-.379-.899.27.27 0 0 0-.241-.192l-1.79-.112a.315.315 0 0 1-.298-.312v-1.526c0-.166.131-.303.298-.313l1.785-.11a.27.27 0 0 0 .241-.195c.096-.316.223-.619.379-.905a.264.264 0 0 0-.033-.305l-1.182-1.322a.31.31 0 0 1 .014-.428l1.095-1.08a.317.317 0 0 1 .434-.013l1.338 1.163c.05.044.113.066.176.066a.28.28 0 0 0 .134-.034 4.82 4.82 0 0 1 .918-.375.27.27 0 0 0 .197-.239l.112-1.757a.315.315 0 0 1 .316-.293h1.548c.167 0 .306.128.317.293l.112 1.76a.269.269 0 0 0 .196.236c.322.095.628.221.919.376a.271.271 0 0 0 .309-.03l1.339-1.166a.316.316 0 0 1 .434.013l1.095 1.08a.31.31 0 0 1 .014.428l-1.184 1.325a.26.26 0 0 0-.032.304c.155.285.281.588.377.903a.27.27 0 0 0 .24.194l1.789.111c.168.01.298.147.298.313v1.526zm1.217-1.362v-.165c0-.798-.632-1.462-1.439-1.512l-1.049-.066.696-.777a1.502 1.502 0 0 0-.067-2.073l-1.093-1.079a1.538 1.538 0 0 0-1.086-.444c-.374 0-.735.134-1.015.378l-.789.687-.066-1.036a1.529 1.529 0 0 0-1.532-1.419H7.439c-.808 0-1.48.623-1.531 1.42l-.066 1.035-.789-.687a1.547 1.547 0 0 0-2.1.066l-1.095 1.08a1.503 1.503 0 0 0-.065 2.072l.695.777-1.05.066A1.525 1.525 0 0 0 0 21.603v1.526c0 .797.631 1.461 1.438 1.512l1.05.064-.695.78a1.502 1.502 0 0 0 .065 2.071l1.095 1.08a1.547 1.547 0 0 0 2.1.065l.789-.687.066 1.036a1.528 1.528 0 0 0 1.531 1.42h1.548a1.53 1.53 0 0 0 1.532-1.42l.066-1.036.789.686c.28.245.641.38 1.015.38.41 0 .796-.159 1.086-.444l1.093-1.08a1.501 1.501 0 0 0 .067-2.072l-.696-.779 1.05-.064a1.527 1.527 0 0 0 1.438-1.512v-.16h.013v-1.2h-.013z"/><path d="M7.753 46.49l-5.848-5.77 5.848-5.77 5.848 5.77-5.848 5.77zM3.77 9.659h8.27V1.5H3.77v8.158zm44.22 12.229l-2.406-1.861a.537.537 0 0 0-.865.427l.013 1.064H30.498V5.605a.856.856 0 0 0-.86-.85H13.56V.75A.756.756 0 0 0 12.8 0H3.01a.756.756 0 0 0-.758.75v9.659c0 .414.34.75.759.75h9.79a.755.755 0 0 0 .759-.75V6.456h15.22v15.062H15.754v1.7H28.78v16.689H14.925L8.289 33.36a.786.786 0 0 0-1.072 0L.295 40.19a.75.75 0 0 0-.223.53.75.75 0 0 0 .223.532l6.922 6.83c.143.14.334.218.536.218a.763.763 0 0 0 .536-.218l6.56-6.474h14.79a.856.856 0 0 0 .859-.85v-17.54h14.255l.014 1.06a.538.538 0 0 0 .857.42l2.358-1.752a.663.663 0 0 0 .008-1.058z"/></svg>
